data/styles/clear/style-night/symbols/toys-m.svg

<svg height="24" viewBox="0 0 24 24" width="24"><g fill="none" fill-rule="evenodd"><circle cx="12" cy="12" fill="#fff" opacity=".4" r="12"/><circle cx="12" cy="12" fill="#4e3552" r="11"/><path d="m14.8 14c-.8832 0-1.6.716-1.6 1.6 0 .8832.7168 1.6 1.6 1.6s1.6-.7168 1.6-1.6c0-.884-.7168-1.6-1.6-1.6zm-5.6 0c-.884 0-1.6.716-1.6 1.6 0 .8832.716 1.6 1.6 1.6.8832 0 1.6-.7168 1.6-1.6 0-.884-.7168-1.6-1.6-1.6zm7.5984-3.2h-2.7248c.3816-.4352.6288-.988.6952-1.6024.0112 0 .02.0032.0312.0032.8832 0 1.6-.7168 1.6-1.6s-.7168-1.6008-1.6-1.6008c-.472 0-.892.2088-1.184.5336-.4568-.3336-1.0128-.5336-1.616-.5336s-1.1584.2-1.616.5336c-.2928-.3248-.712-.5336-1.184-.5336-.884 0-1.6.7168-1.6 1.6008 0 .8832.716 1.6 1.6 1.6.0112 0 .02-.0032.0312-.0032.0664.6144.3144 1.1672.6952 1.6024h-2.7256c-.6624 0-1.2008.5376-1.2008 1.2 0 .6344.4936 1.1472 1.116 1.1912.5616-.4864 1.284-.7912 2.084-.7912 1.2136 0 2.2568.6856 2.8 1.6832.5432-.9968 1.5864-1.6832 2.8-1.6832.8 0 1.5224.3048 2.084.7912.6216-.0448 1.116-.5568 1.116-1.1912 0-.6624-.5384-1.2-1.2016-1.2zm-4.7984.16c-.7624 0-1.36-.4216-1.36-.96s.5976-.96 1.36-.96 1.36.4216 1.36.96-.5976.96-1.36.96z" fill="#fff" opacity=".6"/></g></svg>

<svg width="24" height="24" viewBox="0 0 24 24">
  <g fill="none" fill-rule="evenodd">
    <circle cx="12" cy="12" r="12" fill="#FFF" opacity=".4"/>
    <circle cx="12" cy="12" r="11" fill="#4E3551"/>
    <path fill="#FFF" d="M14.8,14 C13.9168,14 13.2,14.716 13.2,15.6 C13.2,16.4832 13.9168,17.2 14.8,17.2 C15.6832,17.2 16.4,16.4832 16.4,15.6 C16.4,14.716 15.6832,14 14.8,14 L14.8,14 Z M9.2,14 C8.316,14 7.6,14.716 7.6,15.6 C7.6,16.4832 8.316,17.2 9.2,17.2 C10.0832,17.2 10.8,16.4832 10.8,15.6 C10.8,14.716 10.0832,14 9.2,14 L9.2,14 Z M16.7984,10.8 L14.0736,10.8 C14.4552,10.3648 14.7024,9.812 14.7688,9.1976 C14.78,9.1976 14.7888,9.2008 14.8,9.2008 C15.6832,9.2008 16.4,8.484 16.4,7.6008 C16.4,6.7176 15.6832,6 14.8,6 C14.328,6 13.908,6.2088 13.616,6.5336 C13.1592,6.2 12.6032,6 12,6 C11.3968,6 10.8416,6.2 10.384,6.5336 C10.0912,6.2088 9.672,6 9.2,6 C8.316,6 7.6,6.7168 7.6,7.6008 C7.6,8.484 8.316,9.2008 9.2,9.2008 C9.2112,9.2008 9.22,9.1976 9.2312,9.1976 C9.2976,9.812 9.5456,10.3648 9.9264,10.8 L7.2008,10.8 C6.5384,10.8 6,11.3376 6,12 C6,12.6344 6.4936,13.1472 7.116,13.1912 C7.6776,12.7048 8.4,12.4 9.2,12.4 C10.4136,12.4 11.4568,13.0856 12,14.0832 C12.5432,13.0864 13.5864,12.4 14.8,12.4 C15.6,12.4 16.3224,12.7048 16.884,13.1912 C17.5056,13.1464 18,12.6344 18,12 C18,11.3376 17.4616,10.8 16.7984,10.8 L16.7984,10.8 Z M12,10.96 C11.2376,10.96 10.64,10.5384 10.64,10 C10.64,9.4616 11.2376,9.04 12,9.04 C12.7624,9.04 13.36,9.4616 13.36,10 C13.36,10.5384 12.7624,10.96 12,10.96 L12,10.96 Z" opacity=".6"/>
  </g>
</svg>
